img/why-we/rocket-tablet.svg

<svg width="46" height="46" viewBox="0 0 46 46" fill="none" xmlns="http://www.w3.org/2000/svg">
<g clip-path="url(#clip0_359_392)">
<path d="M9.41988 39.6783C8.51713 41.5557 7.94644 42.8078 2.9195 42.9903C3.06325 38.1402 3.989 37.6198 5.83906 36.697C6.61531 36.3088 7.58275 35.8273 8.62925 35.0237L6.87838 32.7884C6.05181 33.4238 5.29138 33.7573 4.55681 34.1224C1.47338 35.6605 0.0200644 37.1742 0.0200644 44.3933L0.0445019 45.8625L1.45756 45.8308C9.07775 45.8308 10.5023 44.1087 11.9298 41.1446C12.2417 40.4948 12.4156 40.055 12.9432 39.1795L10.8114 37.2432C10.1731 38.1158 9.7735 38.9438 9.41988 39.6755V39.6783ZM31.6681 8.47597C28.4883 8.47597 25.9023 11.062 25.9023 14.2403C25.9023 17.4187 28.4898 20.0062 31.6681 20.0062C34.8464 20.0062 37.4339 17.4187 37.4339 14.2403C37.4339 11.062 34.8464 8.47597 31.6681 8.47597ZM31.6681 17.1197C30.0811 17.1197 28.7888 15.8273 28.7888 14.2418C28.7888 12.6562 30.0796 11.3639 31.6681 11.3639C33.2565 11.3639 34.5474 12.6562 34.5474 14.2418C34.5474 15.8288 33.2565 17.1197 31.6681 17.1197ZM45.9899 1.31722C45.9468 0.599904 45.3775 0.0249039 44.6602 -0.0282836C44.6602 -0.0282836 36.6159 -0.614784 28.8764 2.27603C26.0489 3.33259 23.7216 5.0044 21.5495 7.53872C19.7383 9.65184 17.9385 13.4698 16.3501 16.641C15.7363 17.8643 15.1498 19.0358 14.6524 19.93H6.65556C6.24444 19.93 5.85344 20.1068 5.58031 20.413L0.310439 26.1242C-0.0259356 26.5051 -0.138061 27.0341 0.0171894 27.5171C0.172439 28.0001 0.570627 28.3681 1.06513 28.4802L9.64269 30.441C10.2278 31.1626 11.2009 32.2422 12.7592 33.9715L16.0094 37.5738L17.7588 44.9741C17.8738 45.4614 18.2346 45.8553 18.7119 46.0091C18.8571 46.0551 19.008 46.0795 19.1561 46.0795C19.4953 46.0795 19.8274 45.9602 20.0919 45.7331L25.4178 40.4345C25.7355 40.1628 25.9195 39.7632 25.9195 39.3434V31.9259C26.6354 31.4817 27.9047 30.796 29.0993 30.1276C32.3538 28.3092 37.2139 26.0437 39.2279 24.2525C42.0655 21.7312 43.0976 19.8825 44.1125 17.1498C46.5246 10.6509 46.0143 1.69528 45.9899 1.31722ZM41.4186 16.1479C40.5331 18.5327 39.731 19.9587 37.3189 22.102C35.5378 23.6847 30.6647 25.9574 27.6963 27.6177C25.4811 28.8554 24.1543 29.5785 23.5721 30.0543C23.2371 30.326 23.0431 30.7357 23.0431 31.1669V38.6807L20.0099 42.0143L18.7176 36.5518C18.6616 36.3175 18.548 36.1004 18.3856 35.9207C15.742 32.9911 11.7486 28.5622 11.4424 28.21C11.2426 27.967 10.9652 27.7945 10.6533 27.7227L4.06806 26.2162L7.29813 22.8021H15.4761C15.9763 22.8021 16.4406 22.5419 16.7008 22.1178C17.3333 21.0886 18.0664 19.6223 18.9174 17.9275C20.3578 15.0554 22.1489 11.2547 23.7302 9.4089C25.5989 7.22965 27.495 5.85972 29.8798 4.96847C35.1856 2.98615 40.6596 2.77772 43.1623 2.7964C43.2083 5.44715 43.1091 11.5925 41.4172 16.1493L41.4186 16.1479Z" fill="#FBD8D5"/>
</g>
<defs>
<clipPath id="clip0_359_392">
<rect width="46" height="46" fill="white"/>
</clipPath>
</defs>
</svg>

<svg width="46" height="46" fill="none" xmlns="http://www.w3.org/2000/svg"><g clip-path="url(#clip0_359_392)"><path d="M9.42 39.678c-.903 1.878-1.474 3.13-6.5 3.312.143-4.85 1.069-5.37 2.92-6.293.775-.388 1.743-.87 2.79-1.673l-1.752-2.236c-.826.636-1.587.97-2.321 1.334C1.473 35.66.02 37.174.02 44.393l.025 1.47 1.413-.032c7.62 0 9.044-1.722 10.472-4.686.312-.65.486-1.09 1.013-1.966l-2.132-1.936c-.638.873-1.037 1.7-1.391 2.432v.003zM31.668 8.476a5.771 5.771 0 00-5.766 5.764 5.774 5.774 0 005.766 5.766 5.774 5.774 0 005.766-5.766 5.772 5.772 0 00-5.766-5.764zm0 8.644a2.883 2.883 0 01-2.88-2.878 2.882 2.882 0 012.88-2.878 2.882 2.882 0 012.88 2.878 2.881 2.881 0 01-2.88 2.878zM45.99 1.317a1.438 1.438 0 00-1.33-1.345s-8.044-.587-15.784 2.304c-2.827 1.057-5.154 2.728-7.327 5.263-1.81 2.113-3.61 5.93-5.199 9.102-.614 1.223-1.2 2.395-1.698 3.289H6.656c-.412 0-.803.177-1.076.483L.31 26.124a1.44 1.44 0 00.755 2.356l8.578 1.961c.585.722 1.558 1.801 3.116 3.53l3.25 3.603 1.75 7.4a1.432 1.432 0 001.397 1.106c.34 0 .671-.12.936-.347l5.326-5.298c.317-.272.502-.672.502-1.092v-7.417c.715-.444 1.985-1.13 3.18-1.798 3.254-1.819 8.114-4.084 10.128-5.875 2.837-2.522 3.87-4.37 4.884-7.103 2.413-6.5 1.902-15.455 1.878-15.833zm-4.571 14.83c-.886 2.386-1.688 3.812-4.1 5.955-1.781 1.583-6.654 3.855-9.623 5.516-2.215 1.237-3.542 1.96-4.124 2.436a1.433 1.433 0 00-.529 1.113v7.514l-3.033 3.333-1.292-5.462a1.44 1.44 0 00-.332-.631 2733.99 2733.99 0 01-6.944-7.711 1.44 1.44 0 00-.789-.487l-6.585-1.507 3.23-3.414h8.178c.5 0 .965-.26 1.225-.684.632-1.03 1.365-2.496 2.216-4.19 1.44-2.873 3.232-6.673 4.813-8.52 1.869-2.178 3.765-3.548 6.15-4.44 5.306-1.982 10.78-2.19 13.282-2.172.046 2.651-.053 8.796-1.745 13.353l.002-.001z" fill="#FBD8D5"/></g><defs><clipPath id="clip0_359_392"><path fill="#fff" d="M0 0h46v46H0z"/></clipPath></defs></svg>
